; generated by Slic3r 1.2.9 on 2017-05-14 at 21:04:19

; Layer Heights:
; ~0.1mm => 0.09525mm (12 steps)
; ~0.2mm => 0.1984mm (25 steps)
; ~0.3mm => 0.2937mm (37 steps)

; external perimeters extrusion width = 0.40mm
; perimeters extrusion width = 0.68mm
; infill extrusion width = 0.68mm
; solid infill extrusion width = 0.68mm
; top infill extrusion width = 0.68mm

M107
M190 S110 ; set bed temperature
M104 S230 ; set temperature
G28 X0 Y0 ; home xy axes
G1 Z10 F200 ; lift nozzle
M109 S230 ; wait for temperature to be reached
G21 ; set units to millimeters
G90 ; use absolute coordinates
M82 ; use absolute distances for extrusion
G92 E0
G1 E-5.00000 F3000.00000
G92 E0
G1 Z0.246 F7800.000
G1 X58.555 Y46.824 F7800.000
G1 E5.00000 F3000.00000
G1 X60.993 Y44.869 E5.08310 F1800.000
G1 X63.845 Y43.594 E5.16619
G1 X67.378 Y43.074 E5.26115
G1 X112.622 Y43.074 E6.46431
G1 X115.721 Y43.473 E6.54740
G1 X118.619 Y44.642 E6.63050
G1 X121.127 Y46.506 E6.71359
G1 X123.082 Y48.943 E6.79669
G1 X124.356 Y51.796 E6.87978
G1 X124.877 Y55.329 E6.97474
G1 X124.877 Y124.671 E8.81874
G1 X124.478 Y127.770 E8.90184
G1 X123.309 Y130.668 E8.98493
G1 X121.445 Y133.176 E9.06803
G1 X119.007 Y135.131 E9.15112
G1 X116.155 Y136.406 E9.23422
G1 X112.622 Y136.926 E9.32918
G1 X67.378 Y136.926 E10.53234
G1 X64.279 Y136.527 E10.61543
G1 X61.381 Y135.358 E10.69853
G1 X58.873 Y133.494 E10.78162
G1 X56.918 Y131.057 E10.86472
G1 X55.644 Y128.204 E10.94781
G1 X55.123 Y124.671 E11.04277
G1 X55.123 Y55.329 E12.88677
G1 X55.522 Y52.230 E12.96987
G1 X56.691 Y49.332 E13.05296
G1 X58.519 Y46.872 E13.13446
G1 E8.13446 F3000.00000
G92 E0
G1 X92.797 Y114.064 F7800.000
G1 E5.00000 F3000.00000
G1 X92.898 Y114.836 E5.02071 F900.000
G1 X92.789 Y115.625 E5.04189
G1 X92.499 Y116.324 E5.06199
G1 X92.026 Y116.940 E5.08266
G1 X91.409 Y117.413 E5.10334
G1 X90.691 Y117.711 E5.12401
G1 X89.921 Y117.812 E5.14468
G1 X89.150 Y117.711 E5.16535
G1 X88.432 Y117.413 E5.18602
G1 X87.815 Y116.940 E5.20669
G1 X87.342 Y116.324 E5.22736
G1 X87.045 Y115.605 E5.24803
G1 X86.943 Y114.835 E5.26870
G1 X87.045 Y114.064 E5.28937
G1 X87.342 Y113.346 E5.31004
G1 X87.815 Y112.729 E5.33071
G1 X88.432 Y112.256 E5.35138
G1 X89.150 Y111.959 E5.37205
G1 X89.900 Y111.860 E5.39216
G1 X90.690 Y111.958 E5.41334
G1 X91.409 Y112.256 E5.43405
G1 X92.026 Y112.729 E5.45472
G1 X92.499 Y113.346 E5.47539
G1 X92.774 Y114.009 E5.49446
G1 X92.548 Y114.131 F7800.000
G1 X92.641 Y114.835 E5.51336 F900.000
G1 X92.541 Y115.558 E5.53276
G1 X92.277 Y116.195 E5.55110
G1 X91.844 Y116.759 E5.56999
G1 X91.281 Y117.191 E5.58888
G1 X90.625 Y117.463 E5.60776
G1 X89.921 Y117.555 E5.62665
G1 X89.216 Y117.463 E5.64554
G1 X88.560 Y117.191 E5.66442
G1 X87.997 Y116.759 E5.68331
G1 X87.565 Y116.195 E5.70219
G1 X87.293 Y115.539 E5.72108
G1 X87.200 Y114.835 E5.73997
G1 X87.293 Y114.131 E5.75885
G1 X87.565 Y113.475 E5.77774
G1 X87.997 Y112.911 E5.79663
G1 X88.560 Y112.479 E5.81551
G1 X89.216 Y112.207 E5.83440
G1 X89.901 Y112.117 E5.85275
G1 X90.624 Y112.207 E5.87214
G1 X91.281 Y112.479 E5.89104
G1 X91.844 Y112.911 E5.90993
G1 X92.277 Y113.475 E5.92881
G1 X92.525 Y114.075 E5.94610
G1 X92.930 Y114.251 F7800.000
G1 E0.94610 F3000.00000
G92 E0
G1 X78.364 Y91.638 F7800.000
G1 E5.00000 F3000.00000
G1 X77.919 Y91.894 E5.01366 F900.000
G1 X77.380 Y92.046 E5.02856
G1 X76.839 Y92.045 E5.04295
G1 X76.319 Y91.906 E5.05727
G1 X75.852 Y91.636 E5.07159
G1 X75.472 Y91.255 E5.08592
G1 X75.203 Y90.788 E5.10024
G1 X75.064 Y90.268 E5.11456
G1 X75.064 Y89.729 E5.12888
G1 X75.204 Y89.209 E5.14321
G1 X75.474 Y88.743 E5.15753
G1 X75.855 Y88.362 E5.17185
G1 X76.321 Y88.093 E5.18618
G1 X76.817 Y87.961 E5.19984
G1 X77.378 Y87.954 E5.21473
G1 X77.900 Y88.094 E5.22912
G1 X78.367 Y88.364 E5.24345
G1 X78.747 Y88.745 E5.25777
G1 X79.016 Y89.212 E5.27209
G1 X79.156 Y89.735 E5.28649
G1 X79.148 Y90.295 E5.30138
G1 X79.015 Y90.791 E5.31504
G1 X78.745 Y91.257 E5.32936
G1 X78.407 Y91.595 E5.34209
G1 X78.208 Y91.434 F7800.000
G1 X77.820 Y91.657 E5.35401 F900.000
G1 X77.345 Y91.791 E5.36712
G1 X76.873 Y91.791 E5.37969
G1 X76.417 Y91.668 E5.39223
G1 X76.009 Y91.432 E5.40476
G1 X75.676 Y91.099 E5.41730
G1 X75.440 Y90.690 E5.42984
G1 X75.319 Y90.235 E5.44238
G1 X75.319 Y89.763 E5.45492
G1 X75.441 Y89.308 E5.46746
G1 X75.677 Y88.900 E5.47999
G1 X76.011 Y88.566 E5.49253
G1 X76.419 Y88.331 E5.50507
G1 X76.852 Y88.215 E5.51699
G1 X77.345 Y88.209 E5.53010
G1 X77.802 Y88.332 E5.54267
G1 X78.210 Y88.568 E5.55521
G1 X78.543 Y88.901 E5.56774
G1 X78.779 Y89.310 E5.58028
G1 X78.901 Y89.766 E5.59285
G1 X78.894 Y90.259 E5.60596
G1 X78.778 Y90.692 E5.61788
G1 X78.542 Y91.100 E5.63042
G1 X78.251 Y91.391 E5.64136
G1 X78.243 Y91.832 F7800.000
G1 E0.64136 F3000.00000
G92 E0
G1 X83.162 Y96.330 F7800.000
G1 E5.00000 F3000.00000
G1 X83.162 Y83.670 E5.33667 F1800.000
G1 X96.838 Y83.670 E5.70035
G1 X96.838 Y96.330 E6.03701
G1 X83.222 Y96.330 E6.39910
G1 X83.417 Y96.075 F7800.000
G1 X83.417 Y83.925 E6.72222 F900.000
G1 X96.583 Y83.925 E7.07235
G1 X96.583 Y96.075 E7.39546
G1 X83.477 Y96.075 E7.74400
G1 X83.017 Y96.075 F7800.000
G1 E2.74400 F3000.00000
G92 E0
G1 X100.898 Y90.534 F7800.000
G1 E5.00000 F3000.00000
G1 X100.827 Y90.000 E5.01432 F900.000
G1 X100.898 Y89.466 E5.02865
G1 X101.104 Y88.968 E5.04297
G1 X101.432 Y88.541 E5.05729
G1 X101.859 Y88.213 E5.07161
G1 X102.357 Y88.007 E5.08594
G1 X102.866 Y87.940 E5.09960
G1 X103.422 Y88.006 E5.11449
G1 X103.922 Y88.213 E5.12888
G1 X104.351 Y88.543 E5.14328
G1 X104.687 Y88.991 E5.15817
G1 X104.883 Y89.466 E5.17183
G1 X104.954 Y90.000 E5.18616
G1 X104.883 Y90.534 E5.20048
G1 X104.677 Y91.032 E5.21480
G1 X104.349 Y91.459 E5.22912
G1 X103.922 Y91.787 E5.24345
G1 X103.424 Y91.993 E5.25777
G1 X102.890 Y92.063 E5.27209
G1 X102.357 Y91.993 E5.28641
G1 X101.882 Y91.796 E5.30008
G1 X101.433 Y91.461 E5.31497
G1 X101.104 Y91.032 E5.32936
G1 X100.921 Y90.589 E5.34209
G1 X101.146 Y90.467 F7800.000
G1 X101.084 Y90.000 E5.35463 F900.000
G1 X101.146 Y89.533 E5.36717
G1 X101.326 Y89.097 E5.37971
G1 X101.613 Y88.723 E5.39225
G1 X101.987 Y88.436 E5.40478
G1 X102.423 Y88.255 E5.41732
G1 X102.867 Y88.197 E5.42924
G1 X103.357 Y88.255 E5.44235
G1 X103.794 Y88.436 E5.45492
G1 X104.168 Y88.723 E5.46748
G1 X104.464 Y89.118 E5.48059
G1 X104.635 Y89.533 E5.49251
G1 X104.697 Y90.000 E5.50505
G1 X104.635 Y90.467 E5.51759
G1 X104.455 Y90.903 E5.53013
G1 X104.168 Y91.277 E5.54267
G1 X103.794 Y91.564 E5.55521
G1 X103.358 Y91.745 E5.56775
G1 X102.890 Y91.806 E5.58028
G1 X102.423 Y91.745 E5.59282
G1 X102.009 Y91.573 E5.60474
G1 X101.614 Y91.278 E5.61785
G1 X101.326 Y90.903 E5.63042
G1 X101.169 Y90.523 E5.64136
G1 X100.764 Y90.347 F7800.000
G1 E0.64136 F3000.00000
G92 E0
G1 X91.409 Y67.680 F7800.000
G1 E5.00000 F3000.00000
G1 X90.691 Y67.978 E5.02067 F900.000
G1 X89.921 Y68.079 E5.04134
G1 X89.150 Y67.978 E5.06201
G1 X88.432 Y67.680 E5.08268
G1 X87.815 Y67.207 E5.10335
G1 X87.342 Y66.590 E5.12402
G1 X87.045 Y65.872 E5.14469
G1 X86.943 Y65.100 E5.16541
G1 X87.053 Y64.311 E5.18658
G1 X87.342 Y63.613 E5.20669
G1 X87.815 Y62.996 E5.22736
G1 X88.432 Y62.523 E5.24803
G1 X89.150 Y62.226 E5.26870
G1 X89.900 Y62.127 E5.28881
G1 X90.690 Y62.225 E5.30998
G1 X91.409 Y62.523 E5.33069
G1 X92.026 Y62.996 E5.35136
G1 X92.499 Y63.613 E5.37203
G1 X92.797 Y64.331 E5.39271
G1 X92.898 Y65.103 E5.41342
G1 X92.789 Y65.892 E5.43459
G1 X92.499 Y66.590 E5.45470
G1 X92.026 Y67.207 E5.47537
G1 X91.457 Y67.644 E5.49445
G1 X91.281 Y67.458 F7800.000
G1 X90.625 Y67.729 E5.51333 F900.000
G1 X89.921 Y67.822 E5.53222
G1 X89.216 Y67.729 E5.55110
G1 X88.560 Y67.458 E5.56999
G1 X87.997 Y67.025 E5.58888
G1 X87.565 Y66.462 E5.60776
G1 X87.293 Y65.806 E5.62665
G1 X87.200 Y65.101 E5.64555
G1 X87.301 Y64.379 E5.66494
G1 X87.565 Y63.741 E5.68329
G1 X87.997 Y63.178 E5.70218
G1 X88.560 Y62.746 E5.72106
G1 X89.216 Y62.474 E5.73995
G1 X89.901 Y62.384 E5.75830
G1 X90.624 Y62.474 E5.77769
G1 X91.281 Y62.746 E5.79659
G1 X91.844 Y63.178 E5.81548
G1 X92.277 Y63.741 E5.83436
G1 X92.548 Y64.398 E5.85325
G1 X92.641 Y65.102 E5.87215
G1 X92.541 Y65.824 E5.89154
G1 X92.277 Y66.462 E5.90989
G1 X91.844 Y67.025 E5.92878
G1 X91.328 Y67.421 E5.94607
G1 X91.263 Y67.857 F7800.000
G1 E0.94607 F3000.00000
G92 E0
G1 X112.213 Y55.738 F7800.000
G1 E5.00000 F3000.00000
G1 X112.213 Y124.262 E6.82227 F1800.000
G1 X67.787 Y124.262 E8.00370
G1 X67.787 Y55.738 E9.82596
G1 X112.153 Y55.738 E11.00579
G1 X112.468 Y55.483 F7800.000
G1 X112.468 Y124.517 E12.84161 F900.000
G1 X67.532 Y124.517 E14.03659
G1 X67.532 Y55.483 E15.87241
G1 X112.408 Y55.483 E17.06580
G1 X112.268 Y55.829 F7800.000
G1 X112.071 Y56.028 F7800.000
G1 X111.923 Y55.880 E17.07137 F1800.000
G1 X111.562 Y55.880 E17.08095
G1 X112.071 Y56.389 E17.10008
G1 X112.071 Y56.749 E17.10967
G1 X111.202 Y55.880 E17.14235
G1 X110.841 Y55.880 E17.15193
G1 X112.071 Y57.109 E17.19817
G1 X112.071 Y57.470 E17.20776
G1 X110.481 Y55.880 E17.26755
G1 X110.121 Y55.880 E17.27714
G1 X112.071 Y57.830 E17.35048
G1 X112.071 Y58.191 E17.36007
G1 X109.760 Y55.880 E17.44697
G1 X109.400 Y55.880 E17.45656
G1 X112.071 Y58.551 E17.55702
G1 X112.071 Y58.911 E17.56661
G1 X109.039 Y55.880 E17.68062
G1 X108.679 Y55.880 E17.69021
G1 X112.071 Y59.272 E17.81778
G1 X112.071 Y59.632 E17.82736
G1 X108.319 Y55.880 E17.96849
G1 X107.958 Y55.880 E17.97808
G1 X112.071 Y59.993 E18.13276
G1 X112.071 Y60.353 E18.14235
G1 X107.598 Y55.880 E18.31059
G1 X107.237 Y55.880 E18.32017
G1 X112.071 Y60.713 E18.50197
G1 X112.071 Y61.074 E18.51155
G1 X106.877 Y55.880 E18.70690
G1 X106.517 Y55.880 E18.71649
G1 X112.071 Y61.434 E18.92539
G1 X112.071 Y61.795 E18.93498
G1 X106.156 Y55.880 E19.15744
G1 X105.796 Y55.880 E19.16702
G1 X112.071 Y62.155 E19.40304
G1 X112.071 Y62.515 E19.41263
G1 X105.435 Y55.880 E19.66220
G1 X105.075 Y55.880 E19.67179
G1 X112.071 Y62.876 E19.93491
G1 X112.071 Y63.236 E19.94450
G1 X104.715 Y55.880 E20.22118
G1 X104.354 Y55.880 E20.23077
G1 X112.071 Y63.597 E20.52101
G1 X112.071 Y63.957 E20.53059
G1 X103.994 Y55.880 E20.83439
G1 X103.633 Y55.880 E20.84398
G1 X112.071 Y64.318 E21.16133
G1 X112.071 Y64.678 E21.17091
G1 X103.273 Y55.880 E21.50182
G1 X102.913 Y55.880 E21.51141
G1 X112.071 Y65.038 E21.85587
G1 X112.071 Y65.399 E21.86545
G1 X102.552 Y55.880 E22.22347
G1 X102.192 Y55.880 E22.23306
G1 X112.071 Y65.759 E22.60463
G1 X112.071 Y66.120 E22.61422
G1 X101.831 Y55.880 E22.99935
G1 X101.471 Y55.880 E23.00893
G1 X112.071 Y66.480 E23.40762
G1 X112.071 Y66.840 E23.41720
G1 X101.111 Y55.880 E23.82944
G1 X100.750 Y55.880 E23.83903
G1 X112.071 Y67.201 E24.26483
G1 X112.071 Y67.561 E24.27441
G1 X100.390 Y55.880 E24.71376
G1 X100.029 Y55.880 E24.72335
G1 X112.071 Y67.922 E25.17626
G1 X112.071 Y68.282 E25.18584
G1 X99.669 Y55.880 E25.65231
G1 X99.309 Y55.880 E25.66189
G1 X112.071 Y68.642 E26.14191
G1 X112.071 Y69.003 E26.15150
G1 X98.948 Y55.880 E26.64507
G1 X98.588 Y55.880 E26.65466
G1 X112.071 Y69.363 E27.16179
G1 X112.071 Y69.724 E27.17138
G1 X98.227 Y55.880 E27.69206
G1 X97.867 Y55.880 E27.70165
G1 X112.071 Y70.084 E28.23589
G1 X112.071 Y70.444 E28.24548
G1 X97.507 Y55.880 E28.79327
G1 X97.146 Y55.880 E28.80286
G1 X112.071 Y70.805 E29.36421
G1 X112.071 Y71.165 E29.37380
G1 X96.786 Y55.880 E29.94871
G1 X96.425 Y55.880 E29.95829
G1 X112.071 Y71.526 E30.54676
G1 X112.071 Y71.886 E30.55634
G1 X96.065 Y55.880 E31.15836
G1 X95.705 Y55.880 E31.16795
G1 X112.071 Y72.246 E31.78353
G1 X112.071 Y72.607 E31.79311
G1 X95.344 Y55.880 E32.42224
G1 X94.984 Y55.880 E32.43183
G1 X112.071 Y72.967 E33.07452
G1 X112.071 Y73.328 E33.08410
G1 X94.623 Y55.880 E33.74035
G1 X94.263 Y55.880 E33.74993
G1 X112.071 Y73.688 E34.41973
G1 X112.071 Y74.048 E34.42932
G1 X93.903 Y55.880 E35.11267
G1 X93.542 Y55.880 E35.12226
G1 X112.071 Y74.409 E35.81917
G1 X112.071 Y74.769 E35.82875
G1 X93.182 Y55.880 E36.53922
G1 X92.821 Y55.880 E36.54880
G1 X112.071 Y75.130 E37.27283
G1 X112.071 Y75.490 E37.28241
G1 X92.461 Y55.880 E38.01999
G1 X92.100 Y55.880 E38.02957
G1 X112.071 Y75.850 E38.78071
G1 X112.071 Y76.211 E38.79029
G1 X91.740 Y55.880 E39.55498
G1 X91.380 Y55.880 E39.56457
G1 X112.071 Y76.571 E40.34281
G1 X112.071 Y76.932 E40.35240
G1 X91.019 Y55.880 E41.14420
G1 X90.659 Y55.880 E41.15378
G1 X112.071 Y77.292 E41.95914
G1 X112.071 Y77.652 E41.96872
G1 X90.298 Y55.880 E42.78764
G1 X89.938 Y55.880 E42.79722
G1 X112.071 Y78.013 E43.62969
G1 X112.071 Y78.373 E43.63927
G1 X89.578 Y55.880 E44.48530
G1 X89.217 Y55.880 E44.49488
G1 X112.071 Y78.734 E45.35446
G1 X112.071 Y79.094 E45.36405
G1 X88.857 Y55.880 E46.23718
G1 X88.496 Y55.880 E46.24677
G1 X112.071 Y79.454 E47.13346
G1 X112.071 Y79.815 E47.14304
G1 X88.136 Y55.880 E48.04329
G1 X87.776 Y55.880 E48.05287
G1 X112.071 Y80.175 E48.96668
G1 X112.071 Y80.536 E48.97626
G1 X87.415 Y55.880 E49.90362
G1 X87.055 Y55.880 E49.91320
G1 X112.071 Y80.896 E50.85412
G1 X112.071 Y81.256 E50.86370
G1 X86.694 Y55.880 E51.81817
G1 X86.334 Y55.880 E51.82776
G1 X112.071 Y81.617 E52.79578
G1 X112.071 Y81.977 E52.80537
G1 X85.974 Y55.880 E53.78695
G1 X85.613 Y55.880 E53.79653
G1 X112.071 Y82.338 E54.79167
G1 X112.071 Y82.698 E54.80125
G1 X85.253 Y55.880 E55.80994
G1 X84.892 Y55.880 E55.81953
G1 X91.315 Y62.303 E56.06111
G1 X90.731 Y62.079 F7800.000
G1 X84.532 Y55.880 E56.29428 F1800.000
G1 X84.172 Y55.880 E56.30386
G1 X90.320 Y62.028 E56.53511
G1 X89.918 Y61.987 E56.54584
G1 X83.811 Y55.880 E56.77555
G1 X83.451 Y55.880 E56.78513
G1 X89.600 Y62.029 E57.01642
G1 X89.281 Y62.071 E57.02496
G1 X83.090 Y55.880 E57.25782
G1 X82.730 Y55.880 E57.26740
G1 X89.001 Y62.151 E57.50327
G1 X88.746 Y62.257 E57.51060
G1 X82.370 Y55.880 E57.75044
G1 X82.009 Y55.880 E57.76002
G1 X88.491 Y62.362 E58.00383
G1 X88.266 Y62.498 E58.01081
G1 X81.649 Y55.880 E58.25971
G1 X81.288 Y55.880 E58.26930
G1 X88.062 Y62.654 E58.52409
G1 X87.859 Y62.811 E58.53093
G1 X80.928 Y55.880 E58.79160
G1 X80.568 Y55.880 E58.80119
G1 X87.672 Y62.984 E59.06840
G1 X87.515 Y63.188 E59.07524
G1 X80.207 Y55.880 E59.35012
G1 X79.847 Y55.880 E59.35970
G1 X87.359 Y63.392 E59.64226
G1 X87.210 Y63.603 E59.64913
G1 X79.486 Y55.880 E59.93962
G1 X79.126 Y55.880 E59.94921
G1 X87.104 Y63.858 E60.24928
G1 X86.998 Y64.113 E60.25662
G1 X78.766 Y55.880 E60.56628
G1 X78.405 Y55.880 E60.57587
G1 X86.906 Y64.381 E60.89561
G1 X86.862 Y64.697 E60.90410
G1 X78.045 Y55.880 E61.23574
G1 X77.684 Y55.880 E61.24533
G1 X86.818 Y65.014 E61.58887
G1 X86.829 Y65.385 E61.59875
G1 X77.324 Y55.880 E61.95626
G1 X76.964 Y55.880 E61.96585
G1 X86.884 Y65.800 E62.33897
G1 X87.053 Y66.330 E62.35376
G1 X76.603 Y55.880 E62.74681
G1 X76.243 Y55.880 E62.75639
G1 X112.071 Y91.708 E64.10397
G1 X112.071 Y91.348 E64.11356
G1 X88.692 Y67.969 E64.99288
G1 X89.222 Y68.139 E65.00767
G1 X112.071 Y90.987 E65.86707
G1 X112.071 Y90.627 E65.87666
G1 X89.637 Y68.193 E66.72045
G1 X90.009 Y68.205 E66.73035
G1 X112.071 Y90.266 E67.56015
G1 X112.071 Y89.906 E67.56973
G1 X90.327 Y68.163 E68.38756
G1 X90.646 Y68.121 E68.39610
G1 X112.071 Y89.546 E69.20195
G1 X112.071 Y89.185 E69.21153
G1 X90.909 Y68.024 E70.00747
G1 X91.164 Y67.918 E70.01481
G1 X112.071 Y88.825 E70.80116
G1 X112.071 Y88.464 E70.81075
G1 X91.419 Y67.813 E71.58752
G1 X91.630 Y67.663 E71.59439
G1 X112.071 Y88.104 E72.36322
G1 X112.071 Y87.744 E72.37281
G1 X91.834 Y67.507 E73.13397
G1 X92.038 Y67.350 E73.14081
G1 X112.071 Y87.383 E73.89430
G1 X112.071 Y87.023 E73.90388
G1 X92.212 Y67.164 E74.65084
G1 X92.368 Y66.960 E74.65768
G1 X112.071 Y86.662 E75.39874
G1 X112.071 Y86.302 E75.40833
G1 X92.525 Y66.756 E76.14351
G1 X92.660 Y66.531 E76.15050
G1 X112.071 Y85.942 E76.88058
G1 X112.071 Y85.581 E76.89016
G1 X92.766 Y66.276 E77.61628
G1 X92.871 Y66.021 E77.62361
