; generated by Slic3r 1.3.0-dev on 2018-05-29 at 20:22:05

; Print Config Notes: 
; Layer Heights:
; ~0.1mm => 0.09525mm (12 steps)
; ~0.2mm => 0.1984mm (25 steps)
; ~0.3mm => 0.2937mm (37 steps)
; 
; external perimeters extrusion width = 0.44mm (0.78mm^3/s)
; perimeters extrusion width = 0.56mm (3.08mm^3/s)
; infill extrusion width = 0.50mm (7.26mm^3/s)
; solid infill extrusion width = 0.56mm (6.16mm^3/s)
; top infill extrusion width = 0.56mm (5.13mm^3/s)

M107
M190 S110 ; set bed temperature and wait for it to be reached
M104 S230 ; set temperature
G28 X0 Y0 ; home xy axes
G1 Z10 F200 ; lift nozzle
; Filament gcode

M109 S230 ; set temperature and wait for it to be reached
G21 ; set units to millimeters
G90 ; use absolute coordinates
M82 ; use absolute distances for extrusion
G92 E0
G1 E-5.00000 F3000.00000
G92 E0
G1 Z0.246 F7800.000
G1 X66.828 Y72.162 F7800.000
G1 E5.00000 F3000.00000
G1 F1800
G1 X68.310 Y71.025 E5.04870
G1 X69.695 Y70.226 E5.09039
G1 X71.118 Y69.616 E5.13077
G1 X80.014 Y66.445 E5.37699
G1 X80.774 Y66.201 E5.39779
G1 X81.629 Y65.979 E5.42083
G1 X82.881 Y65.753 E5.45400
G1 X83.966 Y65.650 E5.48241
G1 X84.710 Y65.628 E5.50183
G1 X94.720 Y65.628 E5.76278
G1 X95.400 Y65.646 E5.78054
G1 X96.362 Y65.727 E5.80570
G1 X97.495 Y65.908 E5.83561
G1 X98.399 Y66.118 E5.85982
G1 X99.236 Y66.367 E5.88256
G1 X100.034 Y66.654 E5.90469
G1 X100.807 Y66.981 E5.92657
G1 X101.569 Y67.354 E5.94867
G1 X102.187 Y67.696 E5.96710
G1 X102.970 Y68.188 E5.99121
G1 X103.780 Y68.774 E6.01728
G1 X104.731 Y69.584 E6.04984
G1 X110.939 Y75.836 E6.27954
G1 X111.421 Y76.378 E6.29845
G1 X111.831 Y76.882 E6.31540
G1 X112.193 Y77.364 E6.33111
G1 X112.730 Y78.147 E6.35587
G1 X113.116 Y78.771 E6.37499
G1 X113.577 Y79.599 E6.39970
G1 X113.917 Y80.289 E6.41975
G1 X114.175 Y80.872 E6.43638
G1 X114.546 Y81.851 E6.46368
G1 X117.241 Y89.807 E6.68268
G1 X117.507 Y90.701 E6.70699
G1 X117.836 Y92.403 E6.75218
G1 X117.940 Y94.003 E6.79399
G1 X117.834 Y95.733 E6.83917
G1 X117.503 Y97.435 E6.88438
G1 X116.903 Y99.199 E6.93296
G1 X116.126 Y100.753 E6.97826
G1 X115.153 Y102.190 E7.02350
G1 X114.098 Y103.391 E7.06519
G1 X112.807 Y104.534 E7.11014
G1 X111.363 Y105.508 E7.15554
G1 X109.812 Y106.282 E7.20074
G1 X108.942 Y106.613 E7.22501
G1 X88.102 Y113.673 E7.79866
G1 X87.209 Y113.939 E7.82295
G1 X85.637 Y114.251 E7.86474
G1 X83.908 Y114.372 E7.90994
G1 X82.177 Y114.266 E7.95513
G1 X80.476 Y113.935 E8.00033
G1 X78.832 Y113.385 E8.04553
G1 X77.422 Y112.710 E8.08627
G1 X68.580 Y107.761 E8.35046
G1 X67.702 Y107.220 E8.37733
G1 X66.382 Y106.201 E8.42082
G1 X65.197 Y105.010 E8.46461
G1 X64.193 Y103.692 E8.50781
G1 X63.359 Y102.240 E8.55147
G1 X62.727 Y100.699 E8.59489
G1 X62.297 Y99.076 E8.63867
G1 X62.085 Y97.405 E8.68257
G1 X62.060 Y96.634 E8.70270
G1 X62.065 Y91.975 E8.82415
G1 X62.365 Y81.725 E9.09152
G1 X62.395 Y81.151 E9.10649
G1 X62.604 Y79.562 E9.14828
G1 X63.087 Y77.762 E9.19687
G1 X63.758 Y76.162 E9.24209
G1 X64.632 Y74.666 E9.28727
G1 X65.608 Y73.394 E9.32906
G1 X66.785 Y72.205 E9.37270
G1 E4.37270 F3000.00000
G92 E0
G1 X102.115 Y92.987 F7800.000
G1 E5.00000 F3000.00000
G1 F900
G1 X100.570 Y88.425 E5.12559
G1 X83.695 Y94.141 E5.59011
G1 X85.240 Y98.704 E5.71570
G1 X91.742 Y96.501 E5.89469
G1 X91.997 Y96.470 E5.90138
G1 X92.205 Y96.530 E5.90702
G1 X92.333 Y96.615 E5.91103
G1 X92.434 Y96.731 E5.91503
G1 X92.513 Y96.893 E5.91973
G1 X92.902 Y98.039 E5.95127
G1 X92.932 Y98.280 E5.95761
G1 X92.902 Y98.430 E5.96161
G1 X92.798 Y98.620 E5.96726
G1 X92.672 Y98.730 E5.97162
G1 X92.510 Y98.810 E5.97632
G1 X84.065 Y101.671 E6.20878
G1 X83.888 Y101.706 E6.21348
G1 X83.673 Y101.682 E6.21913
G1 X83.460 Y101.563 E6.22549
G1 X83.323 Y101.378 E6.23148
G1 X81.737 Y96.725 E6.35965
G1 X74.855 Y96.725 E6.53906
G1 X74.756 Y96.693 E6.54178
G1 X74.724 Y96.593 E6.54450
G1 X74.724 Y92.360 E6.65487
G1 X74.747 Y92.180 E6.65960
G1 X74.807 Y92.036 E6.66367
G1 X74.902 Y91.911 E6.66776
G1 X75.025 Y91.814 E6.67185
G1 X75.169 Y91.753 E6.67592
G1 X75.345 Y91.726 E6.68057
G1 X82.514 Y91.722 E6.86747
G1 X83.174 Y91.676 E6.88472
G1 X83.919 Y91.554 E6.90441
G1 X84.429 Y91.427 E6.91813
G1 X87.105 Y90.523 E6.99176
G1 X87.716 Y90.268 E7.00901
G1 X88.384 Y89.909 E7.02879
G1 X88.823 Y89.625 E7.04242
G1 X89.382 Y89.195 E7.06080
G1 X89.542 Y89.227 E7.06506
G1 X90.225 Y89.239 E7.08287
G1 X90.580 Y89.204 E7.09217
G1 X91.153 Y89.088 E7.10740
G1 X91.711 Y88.896 E7.12278
G1 X92.239 Y88.633 E7.13816
G1 X92.728 Y88.303 E7.15353
G1 X93.170 Y87.913 E7.16891
G1 X93.550 Y87.475 E7.18403
G1 X93.882 Y86.976 E7.19966
G1 X94.141 Y86.446 E7.21505
G1 X94.329 Y85.887 E7.23043
G1 X94.442 Y85.308 E7.24580
G1 X94.478 Y84.719 E7.26118
G1 X94.437 Y84.130 E7.27656
G1 X94.320 Y83.552 E7.29194
G1 X94.128 Y82.994 E7.30732
G1 X93.865 Y82.466 E7.32270
G1 X93.535 Y81.977 E7.33808
G1 X93.144 Y81.535 E7.35346
G1 X92.699 Y81.148 E7.36883
G1 X92.208 Y80.822 E7.38421
G1 X91.678 Y80.564 E7.39959
G1 X91.118 Y80.376 E7.41497
G1 X90.539 Y80.263 E7.43036
G1 X89.941 Y80.228 E7.44598
G1 X89.362 Y80.268 E7.46111
G1 X88.784 Y80.385 E7.47648
G1 X88.226 Y80.577 E7.49186
G1 X87.698 Y80.840 E7.50724
G1 X87.207 Y81.172 E7.52270
G1 X86.804 Y81.538 E7.53690
G1 X81.256 Y83.415 E7.68958
G1 X80.636 Y83.553 E7.70615
G1 X80.003 Y83.622 E7.72273
G1 X75.642 Y83.624 E7.83645
G1 X75.463 Y83.600 E7.84115
G1 X75.267 Y83.508 E7.84680
G1 X75.149 Y83.390 E7.85115
G1 X75.072 Y83.257 E7.85515
G1 X75.032 Y83.109 E7.85916
G1 X75.042 Y81.943 E7.88955
G1 X75.105 Y81.791 E7.89385
G1 X75.208 Y81.656 E7.89826
G1 X75.388 Y81.541 E7.90385
G1 X75.539 Y81.500 E7.90792
G1 X80.240 Y81.492 E8.03047
G1 X80.571 Y81.460 E8.03915
G1 X80.938 Y81.364 E8.04904
G1 X81.451 Y81.133 E8.06371
G1 X81.773 Y80.920 E8.07377
G1 X82.045 Y80.677 E8.08327
G1 X83.406 Y78.939 E8.14084
G1 X83.564 Y78.772 E8.14682
G1 X83.764 Y78.619 E8.15340
G1 X84.003 Y78.482 E8.16058
G1 X84.258 Y78.377 E8.16777
G1 X84.502 Y78.314 E8.17435
G1 X84.730 Y78.292 E8.18031
G1 X94.821 Y78.298 E8.44340
G1 X95.060 Y78.336 E8.44972
G1 X95.481 Y78.471 E8.46123
G1 X95.733 Y78.593 E8.46853
G1 X96.061 Y78.816 E8.47888
G1 X101.613 Y84.403 E8.68424
G1 X101.883 Y84.719 E8.69506
G1 X102.158 Y85.121 E8.70776
G1 X102.395 Y85.546 E8.72046
G1 X102.557 Y85.929 E8.73128
G1 X105.239 Y93.845 E8.94919
G1 X105.274 Y94.022 E8.95389
G1 X105.264 Y94.175 E8.95789
G1 X105.214 Y94.320 E8.96190
G1 X105.122 Y94.458 E8.96622
G1 X104.935 Y94.595 E8.97225
G1 X104.864 Y94.624 E8.97426
G1 X96.350 Y97.510 E9.20864
G1 X96.173 Y97.545 E9.21334
G1 X96.019 Y97.535 E9.21737
G1 X95.818 Y97.456 E9.22299
G1 X95.652 Y97.297 E9.22899
G1 X95.566 Y97.123 E9.23405
G1 X95.182 Y95.990 E9.26524
G1 X95.147 Y95.813 E9.26995
G1 X95.171 Y95.598 E9.27559
G1 X95.245 Y95.448 E9.27995
G1 X95.395 Y95.292 E9.28560
G1 X95.569 Y95.206 E9.29065
G1 X102.059 Y93.006 E9.46930
G1 X101.792 Y92.827 F7800.000
G1 F297
G1 X100.410 Y88.748 E9.58161
G1 X84.018 Y94.301 E10.03284
G1 X85.400 Y98.381 E10.14515
G1 X91.668 Y96.257 E10.31770
G1 X91.775 Y96.229 E10.32059
G1 X92.006 Y96.214 E10.32660
G1 X92.105 Y96.227 E10.32922
G1 X92.319 Y96.300 E10.33511
G1 X92.502 Y96.422 E10.34086
G1 X92.648 Y96.588 E10.34661
G1 X92.749 Y96.795 E10.35262
G1 X93.146 Y97.965 E10.38482
G1 X93.174 Y98.072 E10.38770
G1 X93.189 Y98.297 E10.39358
G1 X93.146 Y98.513 E10.39933
G1 X93.046 Y98.715 E10.40522
G1 X92.985 Y98.795 E10.40784
G1 X92.815 Y98.944 E10.41372
G1 X92.608 Y99.046 E10.41974
G1 X84.131 Y101.917 E10.65307
G1 X83.905 Y101.962 E10.65908
G1 X83.680 Y101.947 E10.66496
G1 X83.583 Y101.921 E10.66759
G1 X83.377 Y101.820 E10.67357
G1 X83.292 Y101.755 E10.67636
G1 X83.218 Y101.680 E10.67911
G1 X83.092 Y101.492 E10.68499
G1 X81.554 Y96.980 E10.80928
G1 X74.830 Y96.980 E10.98459
G1 X74.684 Y96.951 E10.98848
G1 X74.572 Y96.876 E10.99197
G1 X74.498 Y96.765 E10.99546
G1 X74.469 Y96.619 E10.99936
G1 X74.469 Y92.344 E11.11081
G1 X74.499 Y92.114 E11.11684
G1 X74.584 Y91.909 E11.12264
G1 X74.718 Y91.731 E11.12846
G1 X74.894 Y91.593 E11.13428
G1 X75.098 Y91.505 E11.14008
G1 X75.326 Y91.472 E11.14608
G1 X82.505 Y91.467 E11.33324
G1 X83.144 Y91.423 E11.34994
G1 X83.867 Y91.304 E11.36905
G1 X84.358 Y91.182 E11.38223
G1 X87.015 Y90.285 E11.45535
G1 X87.606 Y90.037 E11.47205
G1 X88.254 Y89.689 E11.49123
G1 X88.676 Y89.416 E11.50433
G1 X89.318 Y88.923 E11.52544
G1 X89.569 Y88.972 E11.53211
G1 X90.215 Y88.984 E11.54896
G1 X90.542 Y88.952 E11.55753
G1 X91.086 Y88.841 E11.57198
G1 X91.612 Y88.660 E11.58649
G1 X92.110 Y88.412 E11.60100
G1 X92.572 Y88.101 E11.61551
G1 X92.988 Y87.733 E11.63001
G1 X93.347 Y87.320 E11.64427
G1 X93.661 Y86.849 E11.65902
G1 X93.905 Y86.349 E11.67354
G1 X94.082 Y85.821 E11.68804
G1 X94.188 Y85.275 E11.70255
G1 X94.223 Y84.720 E11.71706
G1 X94.184 Y84.165 E11.73157
G1 X94.073 Y83.619 E11.74608
G1 X93.892 Y83.093 E11.76058
G1 X93.644 Y82.595 E11.77509
G1 X93.333 Y82.134 E11.78960
G1 X92.965 Y81.717 E11.80411
G1 X92.545 Y81.351 E11.81861
G1 X92.081 Y81.044 E11.83312
G1 X91.581 Y80.800 E11.84763
G1 X91.053 Y80.623 E11.86214
G1 X90.507 Y80.517 E11.87665
G1 X89.942 Y80.483 E11.89140
G1 X89.396 Y80.521 E11.90566
G1 X88.851 Y80.632 E11.92017
G1 X88.325 Y80.813 E11.93468
G1 X87.827 Y81.061 E11.94918
G1 X87.364 Y81.373 E11.96372
G1 X86.936 Y81.762 E11.97883
G1 X81.325 Y83.661 E12.13325
G1 X80.677 Y83.805 E12.15056
G1 X80.017 Y83.876 E12.16786
G1 X75.625 Y83.879 E12.28237
G1 X75.396 Y83.848 E12.28838
G1 X75.188 Y83.762 E12.29427
G1 X75.104 Y83.706 E12.29689
G1 X74.945 Y83.547 E12.30277
G1 X74.834 Y83.356 E12.30852
G1 X74.777 Y83.143 E12.31427
G1 X74.777 Y81.968 E12.34490
G1 X74.797 Y81.869 E12.34753
G1 X74.882 Y81.662 E12.35335
G1 X75.021 Y81.481 E12.35929
G1 X75.096 Y81.415 E12.36191
G1 X75.290 Y81.303 E12.36774
G1 X75.505 Y81.245 E12.37355
G1 X80.227 Y81.237 E12.49666
G1 X80.526 Y81.208 E12.50450
G1 X80.853 Y81.123 E12.51331
G1 X81.328 Y80.909 E12.52687
G1 X81.617 Y80.718 E12.53591
G1 X81.858 Y80.502 E12.54434
G1 X83.213 Y78.773 E12.60163
G1 X83.393 Y78.582 E12.60845
G1 X83.623 Y78.406 E12.61601
G1 X83.891 Y78.253 E12.62407
G1 X84.177 Y78.135 E12.63213
G1 X84.458 Y78.062 E12.63969
G1 X84.718 Y78.037 E12.64651
G1 X94.841 Y78.043 E12.91044
G1 X95.120 Y78.087 E12.91780
G1 X95.576 Y78.234 E12.93028
G1 X95.861 Y78.372 E12.93853
G1 X96.225 Y78.619 E12.95001
G1 X101.801 Y84.231 E13.15625
G1 X102.085 Y84.564 E13.16768
G1 X102.375 Y84.987 E13.18104
G1 X102.624 Y85.434 E13.19440
G1 X102.795 Y85.838 E13.20583
G1 X105.485 Y93.779 E13.42442
G1 X105.530 Y94.005 E13.43043
G1 X105.516 Y94.225 E13.43618
G1 X105.445 Y94.434 E13.44193
G1 X105.320 Y94.621 E13.44778
G1 X105.248 Y94.693 E13.45044
G1 X105.056 Y94.821 E13.45645
G1 X104.954 Y94.863 E13.45934
G1 X96.416 Y97.757 E13.69436
G1 X96.190 Y97.802 E13.70038
G1 X95.968 Y97.787 E13.70616
G1 X95.756 Y97.715 E13.71201
G1 X95.669 Y97.664 E13.71463
G1 X95.496 Y97.512 E13.72065
G1 X95.434 Y97.432 E13.72327
G1 X95.330 Y97.221 E13.72942
G1 X94.935 Y96.056 E13.76148
G1 X94.890 Y95.830 E13.76750
G1 X94.905 Y95.604 E13.77338
G1 X94.931 Y95.507 E13.77600
G1 X95.031 Y95.305 E13.78188
G1 X95.180 Y95.135 E13.78777
G1 X95.260 Y95.074 E13.79039
G1 X95.471 Y94.970 E13.79654
G1 X101.735 Y92.847 E13.96898
G1 X102.171 Y92.699 F7800.000
G1 E8.96898 F3000.00000
G92 E0
G1 X104.884 Y94.329 F7800.000
G1 E5.00000 F3000.00000
G1 F1800
G1 X105.013 Y94.174 E5.00527
G1 X105.039 Y94.098 E5.00738
G1 X105.044 Y94.012 E5.00964
G1 X105.006 Y93.845 E5.01411
G1 X104.279 Y94.571 E5.04101
G1 X103.732 Y94.757 E5.05615
G1 X104.914 Y93.575 E5.09993
G1 X104.823 Y93.304 E5.10740
G1 X103.184 Y94.943 E5.16806
G1 X102.637 Y95.128 E5.18320
G1 X104.731 Y93.034 E5.26075
G1 X104.639 Y92.764 E5.26822
G1 X102.089 Y95.314 E5.36265
G1 X101.542 Y95.499 E5.37778
G1 X104.548 Y92.493 E5.48909
G1 X104.456 Y92.223 E5.49657
G1 X100.995 Y95.685 E5.62476
G1 X100.447 Y95.870 E5.63990
G1 X104.365 Y91.953 E5.78497
G1 X104.273 Y91.682 E5.79245
G1 X99.900 Y96.056 E5.95440
G1 X99.352 Y96.242 E5.96954
G1 X104.182 Y91.412 E6.14838
G1 X104.090 Y91.142 E6.15585
G1 X102.322 Y92.910 E6.22132
G1 X102.230 Y92.639 E6.22879
G1 X103.998 Y90.871 E6.29426
G1 X103.907 Y90.601 E6.30174
G1 X102.139 Y92.369 E6.36720
G1 X102.047 Y92.099 E6.37468
G1 X103.815 Y90.331 E6.44015
G1 X103.724 Y90.060 E6.44762
G1 X101.956 Y91.828 E6.51309
G1 X101.864 Y91.558 E6.52056
G1 X103.632 Y89.790 E6.58603
G1 X103.540 Y89.520 E6.59350
G1 X101.773 Y91.288 E6.65897
G1 X101.681 Y91.017 E6.66645
G1 X103.449 Y89.249 E6.73191
G1 X103.357 Y88.979 E6.73939
G1 X101.589 Y90.747 E6.80486
G1 X101.498 Y90.477 E6.81233
G1 X103.266 Y88.709 E6.87780
G1 X103.174 Y88.438 E6.88527
G1 X101.406 Y90.206 E6.95074
G1 X101.315 Y89.936 E6.95822
G1 X103.083 Y88.168 E7.02368
G1 X102.991 Y87.898 E7.03116
G1 X101.223 Y89.666 E7.09663
G1 X101.131 Y89.395 E7.10410
G1 X102.899 Y87.627 E7.16957
G1 X102.808 Y87.357 E7.17704
G1 X101.040 Y89.125 E7.24251
G1 X100.948 Y88.855 E7.24999
G1 X102.716 Y87.087 E7.31546
G1 X102.625 Y86.816 E7.32293
G1 X100.857 Y88.584 E7.38840
G1 X100.765 Y88.314 E7.39587
G1 X102.533 Y86.546 E7.46134
G1 X102.441 Y86.276 E7.46882
G1 X100.530 Y88.187 E7.53959
G1 X99.983 Y88.372 E7.55472
G1 X102.350 Y86.005 E7.64237
G1 X102.243 Y85.750 E7.64961
G1 X99.436 Y88.558 E7.75356
G1 X98.888 Y88.743 E7.76869
G1 X102.124 Y85.508 E7.88850
G1 X101.994 Y85.275 E7.89547
G1 X98.341 Y88.928 E8.03075
G1 X97.794 Y89.114 E8.04589
G1 X101.851 Y85.057 E8.19613
G1 X101.703 Y84.842 E8.20294
G1 X97.246 Y89.299 E8.36799
G1 X96.699 Y89.485 E8.38312
G1 X101.536 Y84.647 E8.56225
G1 X101.363 Y84.459 E8.56896
G1 X96.152 Y89.670 E8.76194
G1 X95.604 Y89.856 E8.77707
G1 X101.182 Y84.277 E8.98364
G1 X101.002 Y84.096 E8.99034
G1 X95.057 Y90.041 E9.21049
G1 X94.509 Y90.226 E9.22563
G1 X100.822 Y83.914 E9.45937
G1 X100.641 Y83.733 E9.46607
G1 X93.962 Y90.412 E9.71340
G1 X93.415 Y90.597 E9.72854
G1 X100.461 Y83.551 E9.98946
G1 X100.281 Y83.370 E9.99616
G1 X92.867 Y90.783 E10.27067
G1 X92.320 Y90.968 E10.28580
G1 X100.100 Y83.188 E10.57390
G1 X99.920 Y83.007 E10.58060
G1 X91.773 Y91.154 E10.88229
G1 X91.225 Y91.339 E10.89743
G1 X99.739 Y82.825 E11.21270
G1 X99.559 Y82.644 E11.21941
G1 X90.678 Y91.524 E11.54827
G1 X90.131 Y91.710 E11.56341
G1 X99.379 Y82.462 E11.90586
G1 X99.198 Y82.280 E11.91256
G1 X89.583 Y91.895 E12.26861
G1 X89.036 Y92.081 E12.28374
G1 X92.187 Y88.930 E12.40042
G1 X91.836 Y89.104 E12.41068
G1 X91.553 Y89.202 E12.41852
G1 X88.489 Y92.266 E12.53200
G1 X87.941 Y92.452 E12.54713
G1 X91.045 Y89.348 E12.66205
G1 X90.597 Y89.434 E12.67399
G1 X87.394 Y92.637 E12.79260
G1 X86.847 Y92.823 E12.80773
G1 X90.204 Y89.466 E12.93204
G1 X89.848 Y89.459 E12.94136
G1 X86.299 Y93.008 E13.07276
G1 X85.752 Y93.193 E13.08790
G1 X89.500 Y89.446 E13.22668
G1 X89.473 Y89.440 E13.22739
G1 X88.997 Y89.806 E13.24310
G1 X88.413 Y90.170 E13.26112
G1 X85.204 Y93.379 E13.37994
G1 X84.657 Y93.564 E13.39507
G1 X87.677 Y90.544 E13.50690
G1 X87.075 Y90.784 E13.52387
G1 X84.110 Y93.750 E13.63368
G1 X83.562 Y93.935 E13.64881
G1 X86.529 Y90.969 E13.75866
G1 X85.982 Y91.153 E13.77376
G1 X80.638 Y96.497 E13.97166
G1 X80.276 Y96.497 E13.98113
G1 X85.436 Y91.338 E14.17219
G1 X84.889 Y91.522 E14.18730
G1 X79.914 Y96.497 E14.37152
G1 X79.553 Y96.497 E14.38100
G1 X84.365 Y91.685 E14.55920
G1 X83.894 Y91.793 E14.57185
G1 X79.191 Y96.497 E14.74603
G1 X78.829 Y96.497 E14.75551
G1 X83.461 Y91.865 E14.92705
G1 X83.049 Y91.915 E14.93793
G1 X78.467 Y96.497 E15.10761
G1 X78.105 Y96.497 E15.11709
G1 X82.660 Y91.942 E15.28578
G1 X82.291 Y91.950 E15.29546
G1 X77.743 Y96.497 E15.46386
G1 X77.381 Y96.497 E15.47334
G1 X81.928 Y91.950 E15.64173
G1 X81.566 Y91.950 E15.65121
G1 X77.019 Y96.497 E15.81960
G1 X76.657 Y96.497 E15.82908
